X:1
T:Marmora, LMD
T:Marmora, LMD
T:Eric Hubert Swinstead (1882-1950)
T:Public Domain Courtesy of the Cyber Hymnal™
C:Eric Hubert Swinstead (1882-1950)
Z:Public Domain
Z:Courtesy of the Cyber Hymnal™
%%score ( 1 2 ) ( 3 4 )
L:1/8
Q:1/4=107
M:4/2
K:F
V:1 treble 
V:2 treble 
V:3 bass 
V:4 bass 
V:1
 C | A2 A2 A2 G2 G3 F F2 F2 | B2 B2 B2 A2 A2 G2 G2 C2 | c2 c2 F2 F2 [B,DB]2 [CB]2 A2 A2 | %4
 A2 A2 A2 A2 G2 F2 [_B,CEG]4 | C | ([B,C]2 z) C [B,C]2 [A,F]2 | [B,F]3 E [B,CE]3 C | %8
 C2 E2 [EG]2 [GB]2 | [GB]3 [FA] [FA]3 F | [Fd]2 [Fd]2 [^Fd]2 [Fc]2 | [Gc]2 [GB]2 [GB]2 [DB]2 | %12
 [DA]2 [DG]2 [Fc]3 [CF] | [DF]2 [EG]2 F3 |] %14
V:2
 x | [A,C]4 [A,^C]4 [A,D]4 [A,D]4 | [DF]4 [B,D]4 [B,E]4 C4 | [CF]4 [A,D]4 x2 [A,C]4 x2 | %4
 [A,C]4 [A,D]4 [=B,F]4 x4 | C | G,4 A,2 x2 | x3 E x2 C x | C2 E2 x4 | x7 F | x8 | x8 | x8 | %13
 x4 F3 |] %14
V:3
 C, | [F,,C,]4 [A,,E,]4 [D,F,]4 D,4 | [G,,G,]4 [G,,F,]4 C,4 [C,E,]2 [B,,E,]2 | %3
 [A,,F,]4 [D,F,]4 [G,,D,]2 [C,E,]2 [F,,C,]4 | [F,,C,]4 [D,F,]4 [G,,D,]4 C,4 | z | %6
 [F,,C,]4 [F,,C,]4 | [G,,C,]4 C,4 | E,2 G,2 C2 C2 | [F,C]3 [F,C] [F,C]3 [F,A,] | %10
 [B,D]2 [B,D]2 [A,D]2 [A,D]2 | [A,D]2 [A,D]2 [A,D]2 [G,,G,]2 | [A,,^F,]2 [B,,G,]2 [C,A,]3 [C,A,] | %13
 [C,B,]2 [C,B,]2 [F,A,]3 |] %14
V:4
 x | x16 | x16 | x16 | x16 | x | x8 | x8 | C,4 C,4 | x8 | x8 | x8 | x8 | x7 |] %14

